!!!OTL: LIEBES MAEDCHEN ICH STEH DRAUSSEN
!!!ARE: Europa, Mitteleuropa, Deutschland, Niederrhein, Meurs
!!!SCT: E0830
!!!YEM: Copyright 1995, estate of Helmut Schaffrath.
**kern
*ICvox
*Ivox
*M4/4
*k[b-e-]
*B-:
=1
{4b-
4b-
8cc
8b-
8a
8b-
=2
8dd
8cc
4cc
8b-
8a
8g
8f}
=3
{4dd
4dd
4dd
4dd
=4
2cc
2r}
=5
{4.ee-
8cc
8b-
8a
8g
8f
=6
4.dd
8b-
8b-
8f
4f}
=7
{4g
4ee-
4dd
4cc
=8
2b-
2r}
=9
{4.ee-
8cc
8b-
8a
8g
8f
=10
4.dd
8b-
8b-
8f
4f}
=11
{4g
4ee-
4dd
4cc
=12
2b-
2r}
==
!!!AGN: Kilt - Lied
!!!ONB: ESAC (Essen Associative Code) Database: ERK2
!!!AMT: simple quadruple
!!!AIN: vox
!!!EED: Helmut Schaffrath
!!!EEV: 1.0
*-
